images/indikatorenset/4137.svg

<?xml version="1.0" standalone="no"?>
<!DOCTYPE svg PUBLIC "-//W3C//DTD SVG 1.1//EN" "http://www.w3.org/Graphics/SVG/1.1/DTD/svg11.dtd">
<svg xmlns:xlink="http://www.w3.org/1999/xlink" version="1.1" class="highcharts-root" style="font-family:arial;font-size:12px;" xmlns="http://www.w3.org/2000/svg" viewBox="0 0 485 415">
  <desc>
    Created with Highstock 5.0.14
  </desc>
  <defs>
    <clipPath id="highcharts-6xhwsbj-6">
      <rect x="0" y="0" width="423" height="250" fill="none"/>
    </clipPath>
    <clipPath id="highcharts-6xhwsbj-7">
      <rect x="0" y="0" width="423" height="250" fill="none"/>
    </clipPath>
  </defs>
  <rect fill="#fbfbfb" class="highcharts-background" x="0" y="0" width="485" height="415" rx="0" ry="0"/>
  <rect fill="none" class="highcharts-plot-background" x="52" y="100" width="423" height="250"/>
  <g class="highcharts-pane-group"/>
  <g class="highcharts-grid highcharts-xaxis-grid ">
    <path fill="none" class="highcharts-grid-line" d="M 71.5 100 L 71.5 350" opacity="1"/>
    <path fill="none" class="highcharts-grid-line" d="M 103.5 100 L 103.5 350" opacity="1"/>
    <path fill="none" class="highcharts-grid-line" d="M 135.5 100 L 135.5 350" opacity="1"/>
    <path fill="none" class="highcharts-grid-line" d="M 167.5 100 L 167.5 350" opacity="1"/>
    <path fill="none" class="highcharts-grid-line" d="M 199.5 100 L 199.5 350" opacity="1"/>
    <path fill="none" class="highcharts-grid-line" d="M 231.5 100 L 231.5 350" opacity="1"/>
    <path fill="none" class="highcharts-grid-line" d="M 263.5 100 L 263.5 350" opacity="1"/>
    <path fill="none" class="highcharts-grid-line" d="M 294.5 100 L 294.5 350" opacity="1"/>
    <path fill="none" class="highcharts-grid-line" d="M 326.5 100 L 326.5 350" opacity="1"/>
    <path fill="none" class="highcharts-grid-line" d="M 358.5 100 L 358.5 350" opacity="1"/>
    <path fill="none" class="highcharts-grid-line" d="M 390.5 100 L 390.5 350" opacity="1"/>
    <path fill="none" class="highcharts-grid-line" d="M 422.5 100 L 422.5 350" opacity="1"/>
    <path fill="none" class="highcharts-grid-line" d="M 454.5 100 L 454.5 350" opacity="1"/>
  </g>
  <g class="highcharts-grid highcharts-yaxis-grid ">
    <path fill="none" stroke="#e6e6e6" stroke-width="1" class="highcharts-grid-line" d="M 52 350.5 L 475 350.5" opacity="1"/>
    <path fill="none" stroke="#e6e6e6" stroke-width="1" class="highcharts-grid-line" d="M 52 288.5 L 475 288.5" opacity="1"/>
    <path fill="none" stroke="#e6e6e6" stroke-width="1" class="highcharts-grid-line" d="M 52 225.5 L 475 225.5" opacity="1"/>
    <path fill="none" stroke="#e6e6e6" stroke-width="1" class="highcharts-grid-line" d="M 52 163.5 L 475 163.5" opacity="1"/>
    <path fill="none" stroke="#e6e6e6" stroke-width="1" class="highcharts-grid-line" d="M 52 99.5 L 475 99.5" opacity="1"/>
  </g>
  <rect fill="none" class="highcharts-plot-border" x="52" y="100" width="423" height="250"/>
  <g class="highcharts-axis highcharts-xaxis ">
    <path fill="none" class="highcharts-tick" stroke="#FFFFFF" stroke-width="1" d="M 71.5 350 L 71.5 360" opacity="1"/>
    <path fill="none" class="highcharts-tick" stroke="#FFFFFF" stroke-width="1" d="M 103.5 350 L 103.5 360" opacity="1"/>
    <path fill="none" class="highcharts-tick" stroke="#FFFFFF" stroke-width="1" d="M 135.5 350 L 135.5 360" opacity="1"/>
    <path fill="none" class="highcharts-tick" stroke="#FFFFFF" stroke-width="1" d="M 167.5 350 L 167.5 360" opacity="1"/>
    <path fill="none" class="highcharts-tick" stroke="#FFFFFF" stroke-width="1" d="M 199.5 350 L 199.5 360" opacity="1"/>
    <path fill="none" class="highcharts-tick" stroke="#FFFFFF" stroke-width="1" d="M 231.5 350 L 231.5 360" opacity="1"/>
    <path fill="none" class="highcharts-tick" stroke="#FFFFFF" stroke-width="1" d="M 263.5 350 L 263.5 360" opacity="1"/>
    <path fill="none" class="highcharts-tick" stroke="#FFFFFF" stroke-width="1" d="M 294.5 350 L 294.5 360" opacity="1"/>
    <path fill="none" class="highcharts-tick" stroke="#FFFFFF" stroke-width="1" d="M 326.5 350 L 326.5 360" opacity="1"/>
    <path fill="none" class="highcharts-tick" stroke="#FFFFFF" stroke-width="1" d="M 358.5 350 L 358.5 360" opacity="1"/>
    <path fill="none" class="highcharts-tick" stroke="#FFFFFF" stroke-width="1" d="M 390.5 350 L 390.5 360" opacity="1"/>
    <path fill="none" class="highcharts-tick" stroke="#FFFFFF" stroke-width="1" d="M 422.5 350 L 422.5 360" opacity="1"/>
    <path fill="none" class="highcharts-tick" stroke="#FFFFFF" stroke-width="1" d="M 454.5 350 L 454.5 360" opacity="1"/>
    <path fill="none" class="highcharts-axis-line" stroke="#ccd6eb" stroke-width="1" d="M 52 350.5 L 475 350.5"/>
  </g>
  <g class="highcharts-axis highcharts-yaxis ">
    <path fill="none" class="highcharts-axis-line" d="M 52 100 L 52 350"/>
  </g>
  <g class="highcharts-series-group">
    <g class="highcharts-series highcharts-series-0 highcharts-column-series highcharts-color-undefined " transform="translate(52,100) scale(1 1)" clip-path="url(#highcharts-6xhwsbj-7)">
      <rect x="11.5" y="175.5" width="16" height="75" fill="#007a2f" stroke="#ffffff" stroke-width="1" class="highcharts-point"/>
      <rect x="43.5" y="162.5" width="16" height="88" fill="#007a2f" stroke="#ffffff" stroke-width="1" class="highcharts-point"/>
      <rect x="75.5" y="220.5" width="16" height="30" fill="#007a2f" stroke="#ffffff" stroke-width="1" class="highcharts-point"/>
      <rect x="107.5" y="200.5" width="16" height="50" fill="#007a2f" stroke="#ffffff" stroke-width="1" class="highcharts-point"/>
      <rect x="139.5" y="133.5" width="16" height="117" fill="#007a2f" stroke="#ffffff" stroke-width="1" class="highcharts-point"/>
      <rect x="171.5" y="157.5" width="16" height="93" fill="#007a2f" stroke="#ffffff" stroke-width="1" class="highcharts-point"/>
      <rect x="203.5" y="162.5" width="16" height="88" fill="#007a2f" stroke="#ffffff" stroke-width="1" class="highcharts-point"/>
      <rect x="235.5" y="183.5" width="16" height="67" fill="#007a2f" stroke="#ffffff" stroke-width="1" class="highcharts-point"/>
      <rect x="267.5" y="206.5" width="16" height="44" fill="#007a2f" stroke="#ffffff" stroke-width="1" class="highcharts-point"/>
      <rect x="299.5" y="158.5" width="16" height="92" fill="#007a2f" stroke="#ffffff" stroke-width="1" class="highcharts-point"/>
      <rect x="331.5" y="53.5" width="16" height="197" fill="#007a2f" stroke="#ffffff" stroke-width="1" class="highcharts-point"/>
      <rect x="363.5" y="147.5" width="16" height="103" fill="#007a2f" stroke="#ffffff" stroke-width="1" class="highcharts-point"/>
      <rect x="395.5" y="150.5" width="16" height="0" fill="#007a2f" stroke="#ffffff" stroke-width="1" class="highcharts-point"/>
    </g>
    <g class="highcharts-markers highcharts-series-0 highcharts-column-series highcharts-color-undefined " transform="translate(52,100) scale(1 1)" clip-path="none"/>
    <g class="highcharts-series highcharts-series-1 highcharts-column-series highcharts-color-undefined " transform="translate(52,100) scale(1 1)" clip-path="url(#highcharts-6xhwsbj-7)">
      <rect x="395.5" y="150.5" width="16" height="100" fill="rgb(0, 122, 47)" fill-opacity=" 0.38" stroke="#ffffff" stroke-width="1" class="highcharts-point"/>
    </g>
    <g class="highcharts-markers highcharts-series-1 highcharts-column-series highcharts-color-undefined " transform="translate(52,100) scale(1 1)" clip-path="none"/>
    <g class="highcharts-series highcharts-series-2 highcharts-line-series highcharts-color-undefined " transform="translate(52,100) scale(1 1)" clip-path="url(#highcharts-6xhwsbj-7)">
      <path fill="none" d="M 307.34592145015 175.5 L 339.29456193354 163.25 L 371.24320241692 161.75 L 403.19184290031 154.75" class="highcharts-graph" stroke="#b00000" stroke-width="2" stroke-linejoin="round" stroke-linecap="round"/>
    </g>
    <g class="highcharts-markers highcharts-series-2 highcharts-line-series highcharts-color-undefined " transform="translate(52,100) scale(1 1)" clip-path="none"/>
  </g>
  <text x="10" text-anchor="start" class="highcharts-title" style="color:#000000;font-size:14px;font-weight:bold;fill:#000000;" y="21">
    <tspan>Anzahl neu erstellte Wohnungen</tspan>
  </text>
  <g class="highcharts-legend" transform="translate(10,30)">
    <rect fill="none" class="highcharts-legend-box" rx="0" ry="0" x="0" y="0" width="364" height="39" visibility="visible"/>
    <g>
      <g>
        <g class="highcharts-legend-item highcharts-column-series highcharts-color-undefined highcharts-series-0" transform="translate(8,3)">
          <text x="21" style="color:#333333;font-size:12px;font-weight:normal;cursor:pointer;fill:#333333;" text-anchor="start" y="15">
            <tspan>Neubau</tspan>
          </text>
          <rect x="2" y="4" width="12" height="12" fill="#007a2f" class="highcharts-point"/>
        </g>
        <g class="highcharts-legend-item highcharts-column-series highcharts-color-undefined highcharts-series-1" transform="translate(91.015625,3)">
          <text x="21" y="15" style="color:#333333;font-size:12px;font-weight:normal;cursor:pointer;fill:#333333;" text-anchor="start">
            <tspan>Neubauprognose</tspan>
          </text>
          <rect x="2" y="4" width="12" height="12" fill="rgb(0, 122, 47)" fill-opacity=" 0.38" class="highcharts-point"/>
        </g>
        <g class="highcharts-legend-item highcharts-line-series highcharts-color-undefined highcharts-series-2" transform="translate(8,17)">
          <path fill="none" d="M 0 11 L 16 11" class="highcharts-graph" stroke="#b00000" stroke-width="2"/>
          <text x="21" y="15" style="color:#333333;font-size:12px;font-weight:normal;cursor:pointer;fill:#333333;" text-anchor="start">
            <tspan>Entwicklung des Zehnjahresdurchschnittes gemäss Prognose</tspan>
          </text>
        </g>
      </g>
    </g>
  </g>
  <g class="highcharts-axis-labels highcharts-xaxis-labels ">
    <text x="71.80815709969472" style="color:#000000;cursor:default;font-size:11px;fill:#000000;" text-anchor="middle" transform="translate(0,0)" y="369" opacity="1">
      2005
    </text>
    <text x="103.75679758307894" style="color:#000000;cursor:default;font-size:11px;fill:#000000;" text-anchor="middle" transform="translate(0,0)" y="369" opacity="1">
      2006
    </text>
    <text x="135.70543806646316" style="color:#000000;cursor:default;font-size:11px;fill:#000000;" text-anchor="middle" transform="translate(0,0)" y="369" opacity="1">
      2007
    </text>
    <text x="167.65407854984738" style="color:#000000;cursor:default;font-size:11px;fill:#000000;" text-anchor="middle" transform="translate(0,0)" y="369" opacity="1">
      2008
    </text>
    <text x="199.60271903323158" style="color:#000000;cursor:default;font-size:11px;fill:#000000;" text-anchor="middle" transform="translate(0,0)" y="369" opacity="1">
      2009
    </text>
    <text x="231.5513595166158" style="color:#000000;cursor:default;font-size:11px;fill:#000000;" text-anchor="middle" transform="translate(0,0)" y="369" opacity="1">
      2010
    </text>
    <text x="263.5" style="color:#000000;cursor:default;font-size:11px;fill:#000000;" text-anchor="middle" transform="translate(0,0)" y="369" opacity="1">
      2011
    </text>
    <text x="295.4486404833842" style="color:#000000;cursor:default;font-size:11px;fill:#000000;" text-anchor="middle" transform="translate(0,0)" y="369" opacity="1">
      2012
    </text>
    <text x="327.39728096676845" style="color:#000000;cursor:default;font-size:11px;fill:#000000;" text-anchor="middle" transform="translate(0,0)" y="369" opacity="1">
      2013
    </text>
    <text x="359.3459214501527" style="color:#000000;cursor:default;font-size:11px;fill:#000000;" text-anchor="middle" transform="translate(0,0)" y="369" opacity="1">
      2014
    </text>
    <text x="391.29456193353684" style="color:#000000;cursor:default;font-size:11px;fill:#000000;" text-anchor="middle" transform="translate(0,0)" y="369" opacity="1">
      2015
    </text>
    <text x="423.24320241692106" style="color:#000000;cursor:default;font-size:11px;fill:#000000;" text-anchor="middle" transform="translate(0,0)" y="369" opacity="1">
      2016
    </text>
    <text x="455.1918429003053" style="color:#000000;cursor:default;font-size:11px;fill:#000000;" text-anchor="middle" transform="translate(0,0)" y="369" opacity="1">
      2017
    </text>
  </g>
  <g class="highcharts-axis-labels highcharts-yaxis-labels ">
    <text x="37" style="color:#000000;cursor:default;font-size:11px;fill:#000000;" text-anchor="end" transform="translate(0,0)" y="355" opacity="1">
      <tspan>0</tspan>
    </text>
    <text x="37" style="color:#000000;cursor:default;font-size:11px;fill:#000000;" text-anchor="end" transform="translate(0,0)" y="292" opacity="1">
      <tspan>250</tspan>
    </text>
    <text x="37" style="color:#000000;cursor:default;font-size:11px;fill:#000000;" text-anchor="end" transform="translate(0,0)" y="230" opacity="1">
      <tspan>500</tspan>
    </text>
    <text x="37" style="color:#000000;cursor:default;font-size:11px;fill:#000000;" text-anchor="end" transform="translate(0,0)" y="167" opacity="1">
      <tspan>750</tspan>
    </text>
    <text x="37" style="color:#000000;cursor:default;font-size:11px;fill:#000000;" text-anchor="end" transform="translate(0,0)" y="105" opacity="1">
      <tspan>1 000</tspan>
    </text>
  </g>
  <text x="10" class="highcharts-credits" text-anchor="start" style="cursor:default;color:#000000;font-size:10px;fill:#000000;" y="400">
    <tspan>Quelle: Statistisches Amt Basel-Stadt, kantonale Gebäude- und Wohnungsstatistik</tspan>
  </text>
</svg>

<svg class="highcharts-root" xmlns="http://www.w3.org/2000/svg" viewBox="0 0 485 415" font-family="arial" font-size="12">
    <defs>
        <clipPath id="a">
            <path fill="none" d="M0 0h423v250H0z"/>
        </clipPath>
    </defs>
    <rect fill="#fbfbfb" class="highcharts-background" width="485" height="415" rx="0" ry="0"/>
    <path fill="none" class="highcharts-plot-background" d="M52 100h423v250H52z"/>
    <g class="highcharts-grid highcharts-xaxis-grid">
        <path fill="none" class="highcharts-grid-line" d="M71.5 100v250m32-250v250m32-250v250m32-250v250m32-250v250m32-250v250m32-250v250m31-250v250m32-250v250m32-250v250m32-250v250m32-250v250m32-250v250"/>
    </g>
    <g class="highcharts-grid highcharts-yaxis-grid">
        <path fill="none" stroke="#e6e6e6" class="highcharts-grid-line" d="M52 350.5h423m-423-62h423m-423-63h423m-423-62h423m-423-64h423"/>
    </g>
    <path fill="none" class="highcharts-plot-border" d="M52 100h423v250H52z"/>
    <g class="highcharts-axis highcharts-xaxis">
        <path fill="none" class="highcharts-tick" stroke="#FFF" d="M71.5 350v10m32-10v10m32-10v10m32-10v10m32-10v10m32-10v10m32-10v10m31-10v10m32-10v10m32-10v10m32-10v10m32-10v10m32-10v10"/>
        <path fill="none" class="highcharts-axis-line" stroke="#ccd6eb" d="M52 350.5h423"/>
    </g>
    <g class="highcharts-axis highcharts-yaxis">
        <path fill="none" class="highcharts-axis-line" d="M52 100v250"/>
    </g>
    <g class="highcharts-series-group">
        <g class="highcharts-series highcharts-series-0 highcharts-column-series highcharts-color-undefined" transform="translate(52 100)" clip-path="url(#a)">
            <path fill="#007a2f" stroke="#fff" class="highcharts-point" d="M11.5 175.5h16v75h-16zm32-13h16v88h-16zm32 58h16v30h-16zm32-20h16v50h-16zm32-67h16v117h-16zm32 24h16v93h-16zm32 5h16v88h-16zm32 21h16v67h-16zm32 23h16v44h-16zm32-48h16v92h-16zm32-105h16v197h-16zm32 94h16v103h-16z"/>
        </g>
        <g class="highcharts-series highcharts-series-1 highcharts-column-series highcharts-color-undefined" transform="translate(52 100)" clip-path="url(#a)">
            <path fill="#007A2F" fill-opacity=".38" stroke="#fff" class="highcharts-point" d="M395.5 150.5h16v100h-16z"/>
        </g>
        <g class="highcharts-series highcharts-series-2 highcharts-line-series highcharts-color-undefined" transform="translate(52 100)" clip-path="url(#a)">
            <path fill="none" d="M307.346 175.5l31.949-12.25 31.948-1.5 31.949-7" class="highcharts-graph" stroke="#b00000" stroke-width="2" stroke-linejoin="round" stroke-linecap="round"/>
        </g>
    </g>
    <text x="10" class="highcharts-title" y="21" color="#000" font-size="14" font-weight="700">
        <tspan>Anzahl neu erstellte Wohnungen</tspan>
    </text>
    <g class="highcharts-legend" transform="translate(10 30)">
        <rect fill="none" class="highcharts-legend-box" rx="0" ry="0" width="364" height="39"/>
        <g class="highcharts-legend-item highcharts-column-series highcharts-color-undefined highcharts-series-0">
            <text x="21" y="15" color="#333" font-weight="400" cursor="pointer" fill="#333" transform="translate(8 3)">
                <tspan>Neubau</tspan>
            </text>
            <path fill="#007a2f" class="highcharts-point" d="M10 7h12v12H10z"/>
        </g>
        <g class="highcharts-legend-item highcharts-column-series highcharts-color-undefined highcharts-series-1">
            <text x="21" y="15" color="#333" font-weight="400" cursor="pointer" fill="#333" transform="translate(91.016 3)">
                <tspan>Neubauprognose</tspan>
            </text>
            <path fill="#007A2F" fill-opacity=".38" class="highcharts-point" d="M93.016 7h12v12h-12z"/>
        </g>
        <g class="highcharts-legend-item highcharts-line-series highcharts-color-undefined highcharts-series-2">
            <path fill="none" d="M8 28h16" class="highcharts-graph" stroke="#b00000" stroke-width="2"/>
            <text x="21" y="15" color="#333" font-weight="400" cursor="pointer" fill="#333" transform="translate(8 17)">
                <tspan>Entwicklung des Zehnjahresdurchschnittes gemäss Prognose</tspan>
            </text>
        </g>
    </g>
    <g class="highcharts-axis-labels highcharts-xaxis-labels" text-anchor="middle" color="#000" cursor="default" font-size="11">
        <text x="71.808" y="369">
            2005
        </text>
        <text x="103.757" y="369">
            2006
        </text>
        <text x="135.705" y="369">
            2007
        </text>
        <text x="167.654" y="369">
            2008
        </text>
        <text x="199.603" y="369">
            2009
        </text>
        <text x="231.551" y="369">
            2010
        </text>
        <text x="263.5" y="369">
            2011
        </text>
        <text x="295.449" y="369">
            2012
        </text>
        <text x="327.397" y="369">
            2013
        </text>
        <text x="359.346" y="369">
            2014
        </text>
        <text x="391.295" y="369">
            2015
        </text>
        <text x="423.243" y="369">
            2016
        </text>
        <text x="455.192" y="369">
            2017
        </text>
    </g>
    <g class="highcharts-axis-labels highcharts-yaxis-labels" text-anchor="end" color="#000" cursor="default" font-size="11">
        <text x="37" y="355">
            <tspan>0</tspan>
        </text>
        <text x="37" y="292">
            <tspan>250</tspan>
        </text>
        <text x="37" y="230">
            <tspan>500</tspan>
        </text>
        <text x="37" y="167">
            <tspan>750</tspan>
        </text>
        <text x="37" y="105">
            <tspan>1 000</tspan>
        </text>
    </g>
    <text x="10" class="highcharts-credits" y="400" cursor="default" color="#000" font-size="10">
        <tspan>Quelle: Statistisches Amt Basel-Stadt, kantonale Gebäude- und Wohnungsstatistik</tspan>
    </text>
</svg>
